X: 091497
T: I Have No Money
T: T\'aim gan Airgead
S: B.Breathnach: "Ceol Rince na hEireann" II/137i 
Z: B.Black
L: 1/8
M: 4/4
R: reel
K: D
FAdB A2 AG|FAdA FE E2|FAdB A2z f|afeg fd d2|
FAdB AAAG|FAdA FE E2|FAdB A2Z f|afeg fdd||
f|afef dcdf|afeg fBBf|afef d2 dB|AAAG FAdf|
afef dcdf|afeg fBBf|a2 fe ed (3Bcd|AAAG FA d2||
